packages/foundations/assets/icons/functional/images/navigation/gear_wheel_20.svg

<svg width="20" height="20" viewBox="0 0 20 20" fill="none" xmlns="http://www.w3.org/2000/svg">
<g clip-path="url(#clip0_187_35)">
<path fill-rule="evenodd" clip-rule="evenodd" d="M11.4375 2.0469C12.3438 2.0469 13.0625 2.7656 13.0938 3.6719V4.6719L13.3438 4.8281L14.25 4.2969C14.5 4.1406 14.7812 4.0781 15.0625 4.0781C15.625 4.0781 16.1875 4.3594 16.4688 4.8906L17.7812 7.0781C17.9375 7.3594 18 7.6406 18 7.9219C18 8.4219 17.75 9.0469 17.1562 9.3594L16.25 9.8594V10.2031L17.125 10.7344C17.75 11.1094 17.875 11.5469 17.9375 12.1406C17.9375 12.4531 17.875 12.7344 17.7188 12.9844L16.4688 15.0781C16.1875 15.5781 15.625 15.8906 15.0625 15.8906C14.75 15.8906 14.4688 15.8281 14.2188 15.6719L13.3125 15.1094L13 15.2969V16.2969C13 17.2031 12.25 17.9531 11.3438 17.9531H8.625C7.7188 17.9531 7 17.2031 7 16.2969V15.2969L6.6875 15.1094L5.7812 15.6719C5.5312 15.7969 5.2188 15.8906 4.9377 15.8907C4.4828 15.8903 3.866 15.652 3.5312 15.0781L2.2812 12.9844C2.125 12.7344 2.0625 12.4219 2.0625 12.1406C2.0625 11.5469 2.3438 11.0469 2.875 10.7344L3.75 10.2031V9.8594L2.8438 9.3594C2.3438 9.0781 2 8.5156 2 7.9219C2 7.6406 2.0625 7.3594 2.2188 7.0781L3.5312 4.8906C3.8438 4.3594 4.375 4.0781 4.9375 4.0781C5.2188 4.0781 5.5 4.1406 5.75 4.2969L6.6562 4.8281L6.9062 4.6719V3.6719C6.9062 2.7656 7.6562 2.0469 8.5625 2.0469H11.4375ZM11.0938 4.0156H8.9062V5.7969L6.6562 7.1406L5.0625 6.2031L4.125 7.7969L5.7188 8.6719L5.75 11.3594L4.1875 12.2656L5.0625 13.7656L6.625 12.8281L9 14.1094V15.9531H11V14.1094L13.3438 12.8281L14.9375 13.7656L15.8125 12.2656L14.2188 11.3594L14.2812 8.6719L15.875 7.7969L14.9375 6.2031L13.3125 7.1406L11.0938 5.7969V4.0156ZM10.0157 8C11.1181 8 12 8.88188 12 9.98428C12 11.1181 11.1181 12 10.0157 12C8.88188 12 8 11.1181 8 9.98428C8 8.88188 8.88188 8 10.0157 8Z" fill="#1A1C1F"/>
</g>
<defs>
<clipPath id="clip0_187_35">
<rect width="20" height="20" fill="white"/>
</clipPath>
</defs>
</svg>

<svg xmlns="http://www.w3.org/2000/svg" width="20" height="20" fill="none"><g clip-path="url(#a)"><path fill="#1A1C1F" fill-rule="evenodd" d="M11.438 2.047c.906 0 1.624.719 1.656 1.625v1l.25.156.906-.531c.25-.156.531-.219.813-.219.562 0 1.124.281 1.406.813l1.312 2.187a1.7 1.7 0 0 1 .219.844c0 .5-.25 1.125-.844 1.437l-.906.5v.344l.875.531c.625.375.75.813.813 1.407 0 .312-.063.593-.22.843l-1.25 2.094a1.64 1.64 0 0 1-1.405.813c-.313 0-.594-.063-.844-.22l-.906-.562-.313.188v1c0 .906-.75 1.656-1.656 1.656H8.625c-.906 0-1.625-.75-1.625-1.656v-1l-.312-.188-.907.563a2 2 0 0 1-.843.219 1.68 1.68 0 0 1-1.407-.813l-1.25-2.094a1.6 1.6 0 0 1-.219-.843c0-.594.282-1.094.813-1.407l.875-.53v-.345l-.906-.5A1.68 1.68 0 0 1 2 7.922a1.7 1.7 0 0 1 .219-.844L3.53 4.891a1.61 1.61 0 0 1 1.406-.813c.282 0 .563.063.813.219l.906.531.25-.156v-1c0-.906.75-1.625 1.657-1.625zm-.344 1.969H8.906v1.78l-2.25 1.345-1.593-.938-.938 1.594 1.594.875.031 2.687-1.562.907.875 1.5 1.562-.938L9 14.11v1.844h2V14.11l2.344-1.28 1.594.937.874-1.5-1.593-.907.062-2.687 1.594-.875-.937-1.594-1.626.938-2.218-1.344zM10.016 8C11.118 8 12 8.882 12 9.984 12 11.118 11.118 12 10.016 12A1.99 1.99 0 0 1 8 9.984C8 8.882 8.882 8 10.016 8" clip-rule="evenodd"/></g><defs><clipPath id="a"><path fill="#fff" d="M0 0h20v20H0z"/></clipPath></defs></svg>
